X:1
T:Capriccio
T:Capriccio
T:Capriccio
T:Georg Friedrich Händel (1650-1759) arr. by Felix Scharpf 
T:Originally for Harpsichord (HWV 483) Arrangement for Flute and Cello 
T:twoflutes 2020 / Felix Scharpf / https://commons.wikimedia.org/wiki/File:Retrato_de_Handel.jpg
T:twoflutes 2020 / Felix Scharpf / https://commons.wikimedia.org/wiki/File:Retrato_de_Handel.jpg
T:twoflutes 2020 / Felix Scharpf / https://commons.wikimedia.org/wiki/File:Retrato_de_Handel.jpg
T:twoflutes 2020 / Felix Scharpf / https://commons.wikimedia.org/wiki/File:Retrato_de_Handel.jpg
C:Georg Friedrich Händel (1650-1759)      arr. Felix Scharpf
Z:twoflutes 2020 / Felix Scharpf / https://commons.wikimedia.org/wiki/File:Retrato_de_Handel.jpg
%%score [ 1 2 ]
L:1/8
Q:1/4=90
M:4/4
K:F
V:1 treble nm="Flöte" snm="Fl."
V:2 bass nm="Violoncello" snm="Vc."
V:1
!mf! (!tenuto!DF).A(d- d/c/B/A/ G/F/E/D/) | (!tenuto!^CE).GB- B/(G/^c/e/) (G/B/A/G/) | %2
 (!tenuto!^FA).c_e- e/(c/^f/a/) (c/e/d/c/) |!>(! (B/G/d/B/ g/d/b/g/) (d'/c'/b/a/ g/f/e/d/) | %4
 (c/A/e/c/ a/e/c'/a/!>)!!mp! e'4) |!mf! (=B/!>(!^G/d/B/ f/d/^g/d/!>)!!mp! =b4) | %6
!mf! (e/!>(!^c/g/e/ b/g/e'/^c'/!>)!!mp! g'4) | z/ (a/d'/c'/ b/a/g/f/ e/d/^c/=B/ A/G/F/E/) | %8
!mf! (F/!>(!D/A/F/ d/A/f/d/!>)!!mp! a4) |!mf! (E/!>(!^C/G/E/ B/G/e/^c/!>)!!mp! g4) | %10
!mf! (A/!>(!^F/c/A/ _e/c/^f/c/!>)!!mp! c'4) |!mf! (d/B/g/d/ b/g/d'/c'/ b/a/g/f/ e/d/^c/=B/) | %12
"_cresc." (A/D/F/D/ A/^F/c/A/) (_e/c/^f/a/ c/e/d/c/) | %13
 (B/G/B/G/ d/=B/f/d/) (_a/f/=b/d'/ f/a/g/f/) | (_e/c/e/c/ g/e/c'/g/) (_e'/d'/c'/b/ a/g/^f/=e/) | %15
 (^f/d/f/d/ a/f/c'/a/) (_e'/a/c'/_e/ f/c/d/A/) |!>(! (B/G/d/B/ g/d/b/g/!>)!!mp! d'4) | %17
!mf! (A/!>(!^F/c/A/ _e/c/^f/c/!>)!!mp! c'4) |!mf! (d/!>(!=B/f/d/ _a/f/d'/=b/!>)!!mp! f'4) | %19
 z/ (a/_e'/d'/ c'/b/a/g/ ^f/g/f/e/ d/c/B/A/) | (B/G/d/B/ g/d/b/g/) (e/c/g/e/ c'/g/e'/c'/) | %21
 (A/F/c/A/ f/c/a/f/) (d/B/f/d/ b/f/d'/b/) | (G/E/B/G/ e/B/g/e/) (^c/A/e/c/ a/g/f/e/) | %23
!mf! (f/!>(!d/a/f/ d'/a/f'/d'/!>)!!mp! a'4) |!mf! (E/!>(!^C/G/E/ B/G/e/^c/!>)!!mp! g4) | %25
!mf! (A/!>(!^F/c/A/ _e/c/^f/c/!>)!!mp! c'4) | z/ (B/d/B/ g/d/b/g/ d'/b/)(g'/f'/ e'/d'/^c'/=b/) | %27
 ^c'/(A/^c/A/) (e/c/g/e/ b/g/c'/e'/) (g/b/a/g/) | ^f/(D/^F/D/) (A/F/c/A/ _e/c/f/a/) (c/e/d/c/) | %29
 (=B/G/B/G/ d/B/f/d/) (_a/f/=b/d'/ f/a/g/f/) | (e/c/E/c/ G/E/B/G/) (e/B/g/e/ b/g/e'/b/) | %31
 a/(F/A/F/) (c/A/f/c/) (d/B/d/B/ f/d/b/f/) | (g/e/g/e/ b/g/e'/=b/) ^c'/(A/^c/A/) (e/c/a/e/) | %33
 (f/d/f/d/ a/f/d'/a/) (b/d'/g/b/ _e/g/^c/=e/ | B/d/G/B/) z2 z4 | %35
!>(! z/ (B/A/G/ A/G/F/E/)[Q:1/4=75] (F/A/[Q:1/4=65]d/)F/[Q:1/4=55] (E/d/)[Q:1/4=20](E/^c/)!>)! | %36
[Q:1/4=80]!mp! d8 |] %37
V:2
 z8 | z8 | z8 | z8 |!mf! (!tenuto!A,,C,).E,A,- A,/(G,/F,/E,/ D,/C,/=B,,/A,,/) | %5
 (!tenuto!^G,,=B,,).D,F,- F,/(D,/^G,/=B,/) (D,/F,/E,/D,/) | %6
 (!tenuto!^C,E,).G,B,- B,/(G,/^C/E/) (G,/B,/A,/G,/) | (F,D, G,2 A,2) z2 | %8
 (!tenuto!D,F,).A,D- D/(C/B,/A,/ G,/F,/E,/D,/) | %9
 (!tenuto!^C,E,).G,B,- B,/(G,/C,/E,/) (G,,/B,,/A,,/G,,/) | %10
 (!tenuto!^F,,A,,).C,_E,- E,/(C,/^F,/A,/) (C,/E,/D,/C,/) | %11
 (B,,/G,,/D,/B,,/ G,/D,/B,/A,/ G,/F,/E,/D,/ ^C,/=B,,/A,,/G,,/) | F,,2 (D,^F,) (A,,C,_E,F, | %13
 G,) z (G,=B,) (D,F,_A,)(=B,, | C,2) (C,_E, G,2) (C,2 | D,2) z2 z4 | %16
 (!tenuto!G,,B,,).D,G,- G,/(F,/_E,/D,/ C,/B,,/A,,/G,,/) | %17
 (!tenuto!^F,,A,,).C,_E,- E,/(C,/^F,/A,/) (C,/E,/D,/C,/) | %18
 (!tenuto!=B,,D,).F,_A,- A,/(F,/=B,/D/) (F,/A,/G,/F,/) | (_E,3 C,) D,2 z2 | (G,B,DG) (C,E,G,C) | %21
 (F,A,CF) (B,,D,F,B,) | (E,G,B,E) A,2 z2 |!f! (!tenuto!D,F,).A,D- D/(C/B,/A,/ G,/F,/E,/D,/) | %24
 (!tenuto!^C,E,).G,B,- B,/(G,/D,/F,/) (A,,/=C,/B,,/A,,/) | %25
 (!tenuto!G,,A,,).C,_E,- E,/(C,/^F,/A,/) (C,/E,/D,/C,/ | B,,2) z2!mp! G,4 |!<(! (A,,4 A,4) | %28
 (D,4!<)!!mf! D4) |!mp! (G,,4"_cresc." G,4) | (C,4 C4) | (F,4 B,4) | (E,4 A,4) | (D,4 G,4) | %34
 z2!f! (_E/!>(!G/^C/=E/ B,/D/G,/B,/ _E,/G,/^C,/=E,/)!>)! |!mp!!>(! A,,8 |!p! D,,8!>)! |] %37

